X: 23516
T: Liberty
R: reel
M: 4/4
K: Dmajor
|:ag|f2A2 f2A2|fgfe d2ef|g2B2 g2B2|gagf e2ag|
f2A2 f2A2|fgfe d2ef|g2e2 cBA2|[d4F4] [d2F2]:|
|:B2|ABAG F2A2|d2e2 f3f|g2e2 cBA2|dcde f2d2|
ABAG F2A2|dcde f3f|g2e2 cBA2|d4 d2:|

